src/assets/outline/ChartSquare.svg

<svg width="24" height="24" viewBox="0 0 24 24"  xmlns="http://www.w3.org/2000/svg">
<path d="M10.1098 18.15H6.31982C5.90982 18.15 5.56982 17.81 5.56982 17.4V12.28C5.56982 11.24 6.41981 10.39 7.45981 10.39H10.1098C10.5198 10.39 10.8598 10.73 10.8598 11.14V17.39C10.8598 17.81 10.5198 18.15 10.1098 18.15ZM7.06982 16.65H9.3598V11.9H7.45981C7.24981 11.9 7.06982 12.07 7.06982 12.29V16.65Z" />
<path d="M13.8901 18.15H10.1001C9.6901 18.15 9.3501 17.81 9.3501 17.4V7.73999C9.3501 6.69999 10.2001 5.84998 11.2401 5.84998H12.7601C13.8001 5.84998 14.6501 6.69999 14.6501 7.73999V17.4C14.6401 17.81 14.3101 18.15 13.8901 18.15ZM10.8601 16.65H13.1501V7.73999C13.1501 7.52999 12.9801 7.34998 12.7601 7.34998H11.2401C11.0301 7.34998 10.8501 7.51999 10.8501 7.73999V16.65H10.8601Z" />
<path d="M17.6801 18.15H13.8901C13.4801 18.15 13.1401 17.81 13.1401 17.4V12.85C13.1401 12.44 13.4801 12.1 13.8901 12.1H16.5401C17.5801 12.1 18.4301 12.95 18.4301 13.99V17.4C18.4301 17.81 18.1001 18.15 17.6801 18.15ZM14.6401 16.65H16.9301V13.99C16.9301 13.78 16.7601 13.6 16.5401 13.6H14.6401V16.65Z" />
<path d="M15 22.75H9C3.57 22.75 1.25 20.43 1.25 15V9C1.25 3.57 3.57 1.25 9 1.25H15C20.43 1.25 22.75 3.57 22.75 9V15C22.75 20.43 20.43 22.75 15 22.75ZM9 2.75C4.39 2.75 2.75 4.39 2.75 9V15C2.75 19.61 4.39 21.25 9 21.25H15C19.61 21.25 21.25 19.61 21.25 15V9C21.25 4.39 19.61 2.75 15 2.75H9Z" />
</svg>

<?xml version="1.0" encoding="UTF-8"?>
<svg width="24" height="24" viewBox="0 0 24 24" xmlns="http://www.w3.org/2000/svg">
 <path d="m10.11 18.15h-3.79c-0.41 0-0.75-0.34-0.75-0.75v-5.12c0-1.04 0.84999-1.89 1.89-1.89h2.65c0.41 0 0.75 0.34 0.75 0.75v6.25c0 0.42-0.34 0.76-0.75 0.76zm-3.04-1.5h2.29v-4.75h-1.9c-0.21 0-0.38999 0.17-0.38999 0.39v4.36z"/>
 <path d="m13.89 18.15h-3.79c-0.41 0-0.75-0.34-0.75-0.75v-9.66c0-1.04 0.85-1.89 1.89-1.89h1.52c1.04 0 1.89 0.85001 1.89 1.89v9.66c-0.01 0.41-0.34 0.75-0.76 0.75zm-3.03-1.5h2.29v-8.91c0-0.21-0.17-0.39001-0.39-0.39001h-1.52c-0.21 0-0.39 0.17001-0.39 0.39001v8.91h0.01z"/>
 <path d="m17.68 18.15h-3.79c-0.41 0-0.75-0.34-0.75-0.75v-4.55c0-0.41 0.34-0.75 0.75-0.75h2.65c1.04 0 1.89 0.85 1.89 1.89v3.41c0 0.41-0.33 0.75-0.75 0.75zm-3.04-1.5h2.29v-2.66c0-0.21-0.17-0.39-0.39-0.39h-1.9v3.05z"/>
 <path d="m15 22.75h-6c-5.43 0-7.75-2.32-7.75-7.75v-6c0-5.43 2.32-7.75 7.75-7.75h6c5.43 0 7.75 2.32 7.75 7.75v6c0 5.43-2.32 7.75-7.75 7.75zm-6-20c-4.61 0-6.25 1.64-6.25 6.25v6c0 4.61 1.64 6.25 6.25 6.25h6c4.61 0 6.25-1.64 6.25-6.25v-6c0-4.61-1.64-6.25-6.25-6.25h-6z"/>
</svg>
